X:1
T:My Shepherd, You Supply My Need
T:Text: Isaac Watts (1674-1748), alt. Tune: North American traditional
T:CMD RESIGNATION http://www.hymnary.org/hymn/ELW2006/782
T:My Shepherd, You Supply My Need
%%score ( 1 2 ) ( 3 4 )
L:1/8
M:3/4
K:C
V:1 treble nm="Piano" snm="Pno."
V:2 treble 
V:3 bass nm="Piano" snm="Pno."
V:4 bass 
V:1
 CE | [B,G]4 ED | E4 [DG]2 | [Ec]4 [FA][EG] | [CE]4 CE | [B,G]4 C2 | [CE]4 [G,D]2 | [G,C]6- | %8
w: 3~~Your _|sure pro- *|vi- sions,|gra- cious _|God at- *|tend me|all my|days;|
w: 1~~My _|Shep- herd, _|you sup-|ply my _|need; most _|ho- ly|is your|name;|
w: 2~~When _|through the _|shades of|death I _|walk, your _|pre- sence|is my|stay;|
 [G,C]4 | CE | [B,G]4 ED | E4 [DG]2 | [Ec]4 [FA][EG] | [CE]4 CE | [DG]4 C2 | [CE]4 [B,D]2 | C6- | %17
w: _|oh, _|may your _|house be|my a- *|bode, and _|all my|work be|praise.|
w: _|in _|pas- tures _|fresh you|make me _|feed, be- *|side the|li- ving|stream.|
w: _|one _|word of _|your sup-|por- ting _|breath drives _|all my|fears a-|way.|
 C4 | [EG]2 | [Ec]4 ec | [FA]4 c2 | [Fd]4 [Gc][FA] | [DG]4 EG | [EA]4 GA | [Gc]4 [Fd]2 | [Ec]6- | %26
w: _|Here|would I _|find a|set- tled _|rest, while _|o- thers _|go and|come;|
w: _|You|bring my _|wand'- ring|spi- rit _|back, when _|I for- *|sake your|ways;|
w: _|Your|hand, in _|sight of|all my _|foes, does _|still my _|ta- ble|spread;|
 [Ec]4 | CE | [DG]4 ED | [CE]4 [DG]2 | [Cc]4 AG | [B,E]4 CE | [DG]4 C2 | [CE]4 [B,D]2 | [G,C]6- | %35
w: _|no _|more a _|stran- ger,|nor a _|guest, but _|like a|child at|home.|
w: _|you _|lead me, _|for your|mer- cy's _|sake, in _|paths of|truth and|grace.|
w: _|my _|cup with _|bles- sings|o- ver- *|flows, your _|oil a-|noints my|head.|
 [G,C]4 |] %36
w: |
w: |
w: |
V:2
 C2 | x4 B,2 | B,2 C2 x2 | x6 | x4 C2 | x4 C2 | x6 | x6 | x4 | C2 | x4 B,2 | B,2 C2 x2 | x6 | %13
 x4 C2 | x4 C2 | x6 | C6- | C4 | x2 | x4 G2 | x4 AG | x6 | x4 E2 | x4 GF | x6 | x6 | x4 | C2 | %28
 x4 B,2 | x6 | x4 C2 | x4 C2 | x4 C2 | x6 | x6 | x4 |] %36
V:3
 [C,E,]2 | [G,,D,]4 G,2 | [E,G,]4 [B,,G,]2 | [C,G,]4 [D,F,][E,G,] | A,4 A,2 | [E,G,]4 [C,E,]2 | %6
 [A,,E,]4 [B,,G,]2 | [C,E,]6- | [C,E,]4 | [C,E,]2 | [G,,D,]4 G,2 | [E,G,]4 [B,,G,]2 | %12
 [C,G,]4 [D,F,][E,G,] | A,4 [A,,A,]2 | [B,,G,]4 [C,E,]2 | [G,,G,]4 [G,,G,]2 | [C,E,]6- | [C,E,]4 | %18
 C2 | [A,C]4 [G,B,][E,C] | [F,C]4 A,2 | [D,A,]4 [E,G,][F,C] | [G,B,]4 C2 | [A,C]4 [E,B,][D,D] | %24
 [E,C]4 [F,A,]2 | [C,G,]6- | [C,G,]4 | [C,E,]2 | [B,,D,]4 [G,,G,]2 | [C,G,]4 [B,,G,]2 | %30
 [A,,E,]4 [C,E,]2 | [E,G,]4 [A,,E,]2 | [B,,D,]4 [C,E,]2 | [G,,G,]4 [G,,G,]2 | [C,E,]6- | [C,E,]4 |] %36
V:4
 x2 | x4 G,2 | x6 | x6 | A,4 A,2 | x6 | x6 | x6 | x4 | x2 | x4 G,2 | x6 | x6 | A,4 x2 | x6 | x6 | %16
 x6 | x4 | C2 | x6 | x4 F,E, | x6 | x4 C2 | x6 | x6 | x6 | x4 | x2 | x6 | x6 | x6 | x6 | x6 | x6 | %34
 x6 | x4 |] %36

